src/assets/svg/bg/key-facts-bg-lower-right.svg

<svg xmlns="http://www.w3.org/2000/svg" width="1581" height="1486" fill="none" viewBox="0 0 1581 1486"><mask id="a" width="1581" height="1486" x="0" y="0" maskUnits="userSpaceOnUse" style="mask-type:luminance"><path fill="#fff" fill-rule="evenodd" d="M396.944 0 1580.63 1028.96l-396.94 456.63L0 456.631z" clip-rule="evenodd"/></mask><g stroke="#707070" stroke-width=".25" mask="url(#a)"><path d="M-436.703 77.012 446.674 844.92l293.646-15.735 215.986 187.755 203.984-6.46 248.57 216.07"/><path d="m-432.986 54.123 883.394 767.923 293.646-15.735L960.04 994.065l203.97-6.477 248.59 216.092"/><path d="m-429.252 31.249 883.395 767.923L747.8 783.424l215.985 187.753 203.965-6.463 248.58 216.096"/><path d="m-425.518 8.375 883.395 767.923 293.64-15.763 215.987 187.754 203.976-6.449 248.59 216.09"/><path d="m-421.77-14.513 883.378 767.908 293.645-15.735L971.24 925.414l203.98-6.449 248.57 216.075"/><path d="M-418.053-37.402 465.342 730.52l293.646-15.734L974.973 902.54l203.957-6.464 248.59 216.094"/><path d="m-414.318-60.277 883.394 767.923 293.646-15.735 215.986 187.754 203.962-6.464 248.58 216.089"/><path d="m-361.691-40.648 834.503 725.422 293.627-15.751 215.987 187.755 203.984-6.463L1435 1066.41"/><path d="m-360.84-66.029 837.385 727.927 293.628-15.75L986.16 833.903l203.99-6.464 248.58 216.091"/><path d="M-317.377-54.368 480.262 639.01l293.645-15.735 215.987 187.754 203.966-6.478 248.59 216.09"/></g></svg>

<svg width="1581" height="1486" viewBox="0 0 1581 1486" fill="none" xmlns="http://www.w3.org/2000/svg">
<mask id="mask0_0_8845" style="mask-type:luminance" maskUnits="userSpaceOnUse" x="0" y="0" width="1581" height="1486">
<path fill-rule="evenodd" clip-rule="evenodd" d="M396.944 0.000106581L1580.63 1028.96L1183.69 1485.59L0 456.631L396.944 0.000106581V0.000106581Z" fill="white"/>
</mask>
<g mask="url(#mask0_0_8845)">
<path d="M-436.703 77.0117L446.674 844.92L740.32 829.185L956.306 1016.94L1160.29 1010.48L1408.86 1226.55" stroke="#707070" stroke-width="0.25"/>
<path d="M-432.986 54.123L450.408 822.046L744.054 806.311L960.04 994.065L1164.01 987.588L1412.6 1203.68" stroke="#707070" stroke-width="0.25"/>
<path d="M-429.252 31.249L454.143 799.172L747.8 783.424L963.785 971.177L1167.75 964.714L1416.33 1180.81" stroke="#707070" stroke-width="0.25"/>
<path d="M-425.518 8.375L457.877 776.298L751.517 760.535L967.504 948.289L1171.48 941.84L1420.07 1157.93" stroke="#707070" stroke-width="0.25"/>
<path d="M-421.77 -14.5134L461.608 753.395L755.253 737.66L971.24 925.414L1175.22 918.965L1423.79 1135.04" stroke="#707070" stroke-width="0.25"/>
<path d="M-418.053 -37.4021L465.342 730.521L758.988 714.787L974.973 902.54L1178.93 896.076L1427.52 1112.17" stroke="#707070" stroke-width="0.25"/>
<path d="M-414.318 -60.2771L469.076 707.646L762.722 691.911L978.708 879.665L1182.67 873.201L1431.25 1089.29" stroke="#707070" stroke-width="0.25"/>
<path d="M-361.691 -40.6484L472.812 684.774L766.439 669.023L982.426 856.778L1186.41 850.315L1435 1066.41" stroke="#707070" stroke-width="0.25"/>
<path d="M-360.84 -66.0288L476.545 661.898L770.173 646.148L986.16 833.903L1190.15 827.439L1438.73 1043.53" stroke="#707070" stroke-width="0.25"/>
<path d="M-317.377 -54.3677L480.262 639.009L773.907 623.274L989.894 811.028L1193.86 804.55L1442.45 1020.64" stroke="#707070" stroke-width="0.25"/>
</g>
</svg>
